X: 38
T:Farrell O'Gara
M:C|
L:1/8
Q:200
S:THSP
R:reel
D:
K:D
"D"A,D ~D2 DEFA|BFAF "A"EFGA|"D"dBcA BdAF|"Em"GEFD "A"EDB,D|
"D"A,D ~D2 DEFA|BFAF "A"EFGA|"D"dBcA BdAF
|1 "A"GFEG "D"FDDB,:|2 "A"GFEG "D"FDDe||
"D"fd~d2 fd"G"gd|"D"fdgf "A"edBc|"D"dBBA Bcde|"Em"fdgf "A"e2d
e|"D"fd~d2 fd"G"gd|"D"fdgf "A"edBc|"D"dBBA BdAF|"A"GFEG "D"FDDe|
"D"fd~d2 fd"G"gd|"D"fdgf "A"edBc|"D"dBBA Bcde|"Em"fdgf "A"e3g|
"D"faaf "G"egfe|"D"dfed BAFE|D2CD B,CDF|"A"BFAF "D"DEDB,|]
